app/dist/common/images/allegheny-technologies.svg

<svg height="18" width="18" xmlns="http://www.w3.org/2000/svg"><path d="m0 0h18v18h-18z" fill="#0675aa"/><path d="m8.995 4-1.063 2.35 1.05 2.09 1.064-2.068zm.398 4.592.754-2.176 2.35-.96-.957 2.386zm2.182-.655 2.425 1.058-2.374 1.013-2.063-1.015zm-.013 2.164-2.173-.716.773 2.223 2.336.936zm-2.569-.542 1.06 2.078-1.057 2.363-1.057-2.356zm-.39-.174-.758 2.216-2.359.938.945-2.452zm-4.603-.39 2.395-1.037 2.057 1.022-2.093 1.02zm2.452-1.138-.98-2.404 2.359.941.772 2.188-2.15-.725z" fill="#f6f8fd"/></svg>

<!-- by TradingView --><svg width="18" height="18" xmlns="http://www.w3.org/2000/svg"><path fill="#0675AA" d="M0 0h18v18H0z"/><path d="M8.995 4L7.932 6.35l1.05 2.09 1.064-2.068L8.995 4zM9.393 8.592l.754-2.176 2.35-.96-.957 2.386-2.147.75zM11.575 7.937L14 8.995l-2.374 1.013-2.063-1.015 2.012-1.056zM11.562 10.101l-2.173-.716.773 2.223 2.336.936-.936-2.443zM8.993 9.559l1.06 2.078L8.996 14l-1.057-2.356 1.054-2.085zM8.603 9.385l-.758 2.216-2.359.938.945-2.452 2.172-.702zM4 8.995l2.395-1.037L8.452 8.98 6.359 10 4 8.995zM6.452 7.857l-.98-2.404 2.359.941.772 2.188-2.15-.725z" fill="#F6F8FD"/></svg>
